icons/svg/file-outline.svg

﻿<?xml version="1.0" encoding="utf-8"?>
<!DOCTYPE svg PUBLIC "-//W3C//DTD SVG 1.1//EN" "http://www.w3.org/Graphics/SVG/1.1/DTD/svg11.dtd">
<svg xmlns="http://www.w3.org/2000/svg" xmlns:xlink="http://www.w3.org/1999/xlink" version="1.1" baseProfile="full" width="24" height="24" viewBox="0 0 24.00 24.00" enable-background="new 0 0 24.00 24.00" xml:space="preserve">
	<path fill="#000000" fill-opacity="1" stroke-width="0.2" stroke-linejoin="round" d="M 12.9994,8.99807L 18.4994,8.99807L 12.9994,3.49807L 12.9994,8.99807 Z M 5.99939,1.99808L 13.9994,1.99808L 19.9994,7.99807L 19.9994,19.9981C 19.9994,21.1021 19.1034,21.9981 17.9994,21.9981L 5.98938,21.9981C 4.88538,21.9981 3.99939,21.1021 3.99939,19.9981L 4.0094,3.99807C 4.0094,2.89407 4.89437,1.99808 5.99939,1.99808 Z M 11,4L 6,4L 6,20L 11,20L 18,20L 18,11L 11,11L 11,4 Z "/>
</svg>

<svg xmlns="http://www.w3.org/2000/svg" version="1.1" baseProfile="full" width="24" height="24" viewBox="0 0 24.00 24.00" xml:space="preserve"><path fill="#000" fill-opacity="1" stroke-width=".2" stroke-linejoin="round" d="M13 8.998h5.5l-5.5-5.5v5.5zm-7-7h8l6 6v12c0 1.104-.897 2-2 2H5.99c-1.105 0-1.99-.896-1.99-2l.01-16c0-1.104.884-2 1.99-2zM11 4H6v16h12v-9h-7V4z"/></svg>
